src/telerik-icons/solid/column-freeze.svg

<?xml version="1.0" encoding="utf-8"?>
<svg xmlns="http://www.w3.org/2000/svg" width="512" height="512" viewBox="0 0 512 512">
  <path d="M32 32v416h416V32H32zm128 32v64L96 64h64zM64 96l96 96v64l-96-96V96zm0 128 96 96v64l-96-96v-64zm0 192v-64l64 64H64zm224 0h-96v-96h96v96zm0-128h-96v-96h96v96zm-96-128V64h96v96h-96zm224 256h-96v-96h96v96zm0-128h-96v-96h96v96zm0-128h-96V64h96v96z"/>
</svg>

<?xml version="1.0" encoding="utf-8"?>
<!-- Generator: Adobe Illustrator 19.2.1, SVG Export Plug-In . SVG Version: 6.00 Build 0)  -->
<svg xmlns="http://www.w3.org/2000/svg" width="512" height="512" viewBox="0 0 512 512">
<path d="M32,32v416h416V32H32z M160,64v64L96,64H160z M64,96l96,96v64l-96-96V96z M64,224l96,96v64l-96-96V224z M64,416v-64l64,64
	H64z M288,416h-96v-96h96V416z M288,288h-96v-96h96V288z M192,160L192,160L192,160V64h96v96H192z M416,416h-96v-96h96V416z M416,288
	h-96v-96h96V288z M416,160h-96V64h96V160z" />
</svg>
